X: 4
T:Memories of Mac
D: The Heart of Cape Bretton, Smithsonian Folkway, Hinnon Beaton, Fiddle
M: 6/8
L: 1/8
Q:350
K: D
ABA DFG | Ade f2d | Ace gfe | def edB | ABA DFG | Ade f2d | Ace gfe | [1
 fdd d3 | [2 fdd dfg :|
|aAA bAA | afa afg | aAA bAA | gfg efg | aAA bAA | afa afa | gec ABc | [
1dfe dfg | [2 dfe d3 :|
